X:1
T:Title
%%score [ 1 2 3 ]
L:1/8
Q:1/4=80
M:3/4
K:Dmin
V:1 treble-8 nm="Tenor I" snm="T 1"
V:2 treble-8 nm="Tenor II" snm="T II"
V:3 bass nm="Bass" snm="B"
V:1
 z6 | z6 | D2 F2 G2 | BA- A/G/F E2 | DC F2 E2 | D>E F G2 F | D2 z2 d2 | d2 c B2 A/G/ | %8
w: ||1.,4.,7.Bel _ a-|cueil _ _ _ _ le|ser- * gent d’A-|mours _ _ _ _|_ Qui|bien _ sait _ _|
w: ||3.Et m’a pro-|mis _ _ _ _ _|qu’à _ tous les|jours _ _ _ _|_ Mec-|tra _ de- * *|
w: ||5.Et que se|bref _ _ _ _ _|je _ n’y ac-|cours _ _ _ _|_ O|mes _ con- * *|
 FG A G2 F/E/ | DB- B/A/G FA- | A/B/ c2 A2 ^G | A2 z2 A2 | F2 A2 D2 | df- f/e/d- d/c/B/A/ | %14
w: fai- * * * * *|re _ _ _ _ ses es-||ploitz. 2.,8.M’a|ja ci- té|par _ _ _ _ _ _ _ _|
w: fault _ _ _ _ _|se _ _ _ _ je n’y|_ _ _ _ _|vois. *|||
w: sulz _ _ _ _ _|se- * * * * cretz et|_ _ _ _ _|cois, 6.M’en|ban- ni- ra|de _ _ _ _ _ _ _ _|
 A2 GF AB | cA- A/F/A G2 | F4 z2 | c>B c d2 c | A3 F GA | F>G AG/F/ E2 | D2 z2 G2 | F>G A>B cd | %22
w: plu- sieurs _ _ _|_ _ _ _ _ _|fois|D’a- * * * *|ler à l’u- *||ne de|ses _ _ _ _ _|
w: ||||||||
w: tou- tes _ _ _|_ _ _ _ _ _|vois.|Et _ _ _ _|plus ne m’y _|_ _ _ _ _ _|ra se-||
 ef- f/d/ d2 ^c | d6 || %24
w: _ _ _ _ _ _|cours.|
w: ||
w: |cours.|
V:2
 z6 | D2 F2 G2 | BA- A/G/F E2 | D2 z2 c2 | de- e/d/d- d/^c/c/=B/ | d2 z2 d2 | d2 c B2 A/G/ | %7
w: |1.,4.,7.Bel _ a-|cueil _ _ _ _ _|_ le|ser- gent _ _ d’A- * * * *|mours Qui|bien _ _ sait _|
w: |3.Et m’a pro-|mis _ _ _ _ _|_ qu’à|tous _ _ _ les _ _ _ _|jours Mec-|tra _ _ de- *|
w: |5.Et que se|bref _ _ _ _ _|_ je|n’y _ _ _ ac- * * * *|cours O|mes _ _ _ _|
 FG A G2 F/E/ | D2 z2 d2 | d2 e2 f>e | dc/B/ A d2 ^c | d4 z2 | A2 F2 A2 | D A2 B G2 | F2 z c2 d | %15
w: _ _ _ fai- * *|re ses|es- * * *||ploitz.|2.,8.M’a ja ci-|té par plu- sieurs|fois M’a ja|
w: * * * fault _ _|_ se|je n’y _ _||vois.||||
w: _ _ _ con- * *|sulz se-|cretz _ _ _|_ _ _ _ et _|cois,|6.M’en ban- ni-|ra de tou- tes|voys, me ban-|
 e f2 e/d/ e/d/c/B/ | A3 F GA | F4 z2 | c>B c d2 c | A>B c d2 c | dA- A/G/F E2 | D2 z2 A2 | %22
w: ci- té _ _ _ _ _ _|par plu- sieurs _|foys.|D’a- * * * *|ler _ _ _ à|l’u- * * * * *|ne de|
w: |||||||
w: ni- ra _ _ _ _ _ _|de tou- tes _|vois.|Et _ _ _ _|plus _ _ _ ne|m’y _ _ _ _ fe-|ra se-|
 GF D A2 ^G | A6 || %24
w: ses _ _ _ _|cours.|
w: ||
w: |cours.|
V:3
 D,2 F,2 G,2 | B,A,- A,/G,/F, E,2 | D,2 z2 C2 | D2 C A,2 G, | B, C2 A,2 ^G, | A,3 B,2 A, | %6
w: 1.,4.,7.Bel _ a-|cueil _ _ _ _ _|_ le|ser- * * *|gent _ d’A- *|mours _ _|
w: 3.Et m’a pro-|mis _ _ _ _ _|_ qu’à|tous _ _ _|_ _ les _|jours _ _|
w: 5.Et que se|bref _ _ _ _ _|_ je|n’y _ _ _|_ _ ac- *|cours _ _|
 F,G, A, G,2 F, | D,2 z2 D2 | D2 C B,2 A,/G,/ | F, G,2 F,/E,/ D,F,- | F,/G,/ A,2 F, E,2 | D,6 | %12
w: _ _ _ _ _|* Qui|bien _ sait _ _|fai- * re _ ses es-||ploitz.|
w: _ _ _ _ _|* Mec-|tra _ de- * *|fault _ se _ je n’y||vois.|
w: _ _ _ _ _|* O|mes _ con- * *|sulz _ se- * cretz _|_ _ _ et _|cois,|
 z A,2 F,2 A,- | A,D, z G,- G,/E,/G, | D,2 E,F,- F,/E,/D, | C,D, F,2 C,2 | C>B, C D2 C | %17
w: 2.,8.M’a ja ci-|* té par _ _ _|plu- * * * * *|* * sieurs fois|D’a- * * * *|
w: |||||
w: 6.M’en ban- ni-|* ra de _ _ _|tou- * * * * *|* * tes vois.|Et _ _ _ _|
"^Textfassung nach:\n \nHearing the motet : es-\nsays on the motet of the\nMiddle Ages and Renais-\nsance ; [... conference \n”Hearing the Motet“, held\nat Washington University \nin February 1994] / ed. \nby Dolores Pesce. – New \nYork [u.a.] : Oxford\nUniv. Pr., 1997. – S. 154\n\n\n\nStand: 12. März 2010\n© 2010 by Kurt Pages" A,3 F, G,A, | %18
w: ler à l’u- *|
w: |
w: plus ne m’y fe-|
 F,4 z2 | C3 B,/A,/ G,>F, | A,>B, C D2 ^C | D2 CA,- A,/G,/F, | E, A,2 F, E,2 | D,6 || %24
w: ne,|d’al- * * * *|ler _ _ _ à|l’u- * * * * *|ne de _ ses|cours.|
w: ||||||
w: ra,|et _ _ _ _|plus _ _ _ ne|m’y _ _ _ _ _|fe- ra _ se-|cours.|

